svg/clojure.svg

<svg viewBox="0 0 20 20" xmlns="http://www.w3.org/2000/svg">
<rect width="100%" height="100%" fill="#91DC47"/>
<path fill-rule="evenodd" clip-rule="evenodd" d="M5.55544 3.34824C6.87103 2.46919 8.41775 2 10 2C12.1217 2 14.1566 2.84285 15.6569 4.34314C17.1571 5.84344 18 7.87827 18 10C18 11.5822 17.5308 13.129 16.6518 14.4446C15.7727 15.7602 14.5233 16.7855 13.0615 17.391C11.5997 17.9965 9.99113 18.155 8.43928 17.8463C6.88743 17.5376 5.46197 16.7757 4.34315 15.6568C3.22433 14.538 2.4624 13.1126 2.15372 11.5607C1.84504 10.0089 2.00347 8.40034 2.60897 6.93853C3.21447 5.47672 4.23985 4.22729 5.55544 3.34824ZM10 2.80001C8.85421 2.79925 7.72477 3.07197 6.70556 3.59549C5.68635 4.119 4.8068 4.87821 4.14001 5.81001C4.73358 5.43265 5.42264 5.2328 6.12601 5.23401C6.75825 5.23173 7.38153 5.38343 7.94201 5.67601C8.01801 5.72001 8.09001 5.76601 8.16201 5.81601C8.86032 5.50775 9.62453 5.37867 10.3853 5.44048C11.1462 5.50229 11.8795 5.75302 12.5189 6.16995C13.1583 6.58688 13.6835 7.15681 14.0469 7.82807C14.4103 8.49933 14.6004 9.25069 14.6 10.014C14.6009 10.6214 14.4807 11.2229 14.2465 11.7833C14.0123 12.3437 13.6688 12.8518 13.236 13.278C13.4526 13.3015 13.6702 13.3135 13.888 13.314C14.688 13.314 15.552 13.138 16.2 12.592C16.6942 12.1585 17.0352 11.577 17.172 10.934C17.2112 10.6289 17.2313 10.3216 17.232 10.014C17.2312 9.06536 17.0435 8.12616 16.6795 7.2501C16.3156 6.37404 15.7826 5.57829 15.111 4.90833C14.4393 4.23837 13.6422 3.70734 12.7653 3.34558C11.8883 2.98382 10.9487 2.79843 10 2.80001ZM12.262 13.098C12.1644 13.0724 12.0688 13.0397 11.976 13H11.968C11.7319 12.8501 11.5367 12.644 11.4 12.4C11.0887 11.8998 10.8281 11.3699 10.622 10.818C10.5417 10.6099 10.5356 10.6542 10.5315 10.6841C10.5255 10.7273 10.5237 10.7406 10.31 9.92599C9.948 8.54599 9.576 7.28399 8.8 6.39999C9.37383 6.20438 9.98614 6.14891 10.5858 6.23821C11.1854 6.32751 11.755 6.55898 12.2469 6.9133C12.7389 7.26763 13.1389 7.73451 13.4136 8.27496C13.6883 8.81541 13.8297 9.41375 13.826 10.02C13.8248 10.6197 13.6826 11.2108 13.4109 11.7454C13.1393 12.2801 12.7457 12.7434 12.262 13.098ZM13.332 14.4C12.8945 14.3558 12.4629 14.2659 12.044 14.132C11.0463 14.6272 9.90241 14.7422 8.82601 14.4558C7.74961 14.1693 6.81425 13.5009 6.19459 12.5753C5.57492 11.6498 5.3133 10.5303 5.45857 9.42592C5.60384 8.32157 6.14607 7.30784 6.98403 6.574C6.72224 6.50951 6.45366 6.47661 6.18403 6.476C4.83803 6.49 3.41803 7.234 2.82603 9.246C2.78594 9.50259 2.77187 9.76258 2.78403 10.022C2.78443 11.5565 3.27385 13.051 4.18125 14.2884C5.08866 15.5259 6.36683 16.442 7.83022 16.9037C9.29362 17.3654 10.8661 17.3487 12.3194 16.8561C13.7726 16.3634 15.0311 15.4204 15.912 14.164C15.2687 14.3286 14.6081 14.4166 13.944 14.426C13.7397 14.4301 13.5353 14.4214 13.332 14.4ZM9.708 10.144C9.636 10.3 9.556 10.474 9.474 10.66C9.17957 11.2957 8.93613 11.9537 8.746 12.628C8.699 12.8448 8.6762 13.0662 8.678 13.288C8.678 13.386 8.678 13.488 8.692 13.596C9.50262 13.8945 10.3907 13.9079 11.21 13.634C11.1197 13.5522 11.0361 13.4632 10.96 13.368C10.446 12.714 10.16 11.756 9.708 10.144ZM7.814 6.894C7.31619 7.24161 6.90893 7.70345 6.62631 8.24082C6.3437 8.7782 6.19397 9.37548 6.18966 9.98263C6.18535 10.5898 6.32659 11.1891 6.60155 11.7305C6.87651 12.2718 7.27718 12.7394 7.77 13.094C7.92495 12.4419 8.24781 11.8243 8.70862 10.9427C8.93184 10.5157 9.18746 10.0268 9.472 9.442C9.42 9.298 9.36 9.142 9.294 8.976C9.05 8.364 8.694 7.654 8.384 7.332C8.2152 7.16031 8.02337 7.0129 7.814 6.894Z" fill="white"/>
</svg>

<svg xmlns="http://www.w3.org/2000/svg" viewBox="0 0 20 20">
  <rect width="100%" height="100%" fill="#91DC47"/>
  <path fill="#fff" fill-rule="evenodd" d="M5.555 3.348a8 8 0 1 1 8.89 13.304 8 8 0 0 1-8.89-13.304ZM10 2.8a7.2 7.2 0 0 0-5.86 3.01 3.69 3.69 0 0 1 1.986-.576 3.894 3.894 0 0 1 1.816.442c.076.044.148.09.22.14a4.586 4.586 0 0 1 6.438 4.198 4.571 4.571 0 0 1-1.364 3.264c.217.024.434.035.652.036.8 0 1.664-.176 2.312-.722a3.05 3.05 0 0 0 .972-1.658A7.22 7.22 0 0 0 10 2.8Zm2.262 10.298a2.048 2.048 0 0 1-.286-.098h-.008a1.688 1.688 0 0 1-.568-.6 8.86 8.86 0 0 1-.778-1.582c-.08-.208-.086-.164-.09-.134-.007.043-.008.057-.222-.758-.362-1.38-.734-2.642-1.51-3.526a3.8 3.8 0 0 1 5.026 3.62 3.825 3.825 0 0 1-1.564 3.078Zm1.07 1.302a6.315 6.315 0 0 1-1.288-.268 4.586 4.586 0 0 1-5.06-7.558 3.377 3.377 0 0 0-.8-.098c-1.346.014-2.766.758-3.358 2.77-.04.257-.054.517-.042.776a7.218 7.218 0 0 0 13.128 4.142 8.42 8.42 0 0 1-1.968.262 4.906 4.906 0 0 1-.612-.026Zm-3.624-4.256c-.072.156-.152.33-.234.516a13.218 13.218 0 0 0-.728 1.968 3 3 0 0 0-.068.66c0 .098 0 .2.014.308a3.8 3.8 0 0 0 2.518.038 2.279 2.279 0 0 1-.25-.266c-.514-.654-.8-1.612-1.252-3.224Zm-1.894-3.25a3.8 3.8 0 0 0-.044 6.2c.155-.652.478-1.27.939-2.151.223-.427.478-.916.763-1.501-.052-.144-.112-.3-.178-.466-.244-.612-.6-1.322-.91-1.644a2.6 2.6 0 0 0-.57-.438Z" clip-rule="evenodd"/>
</svg>
